build/images/svg/insta.svg

<svg width="16" height="16" viewBox="0 0 16 16" fill="none" xmlns="http://www.w3.org/2000/svg">
  <path fill-rule="evenodd" clip-rule="evenodd" d="M15.9438 4.7011C15.8831 3.41939 15.5904 2.28406 14.6516 1.34866C13.7165 0.413254 12.5814 0.120495 11.2999 0.0562312C9.97925 -0.0187437 6.02075 -0.0187437 4.70006 0.0562312C3.4222 0.116925 2.28712 0.409684 1.34835 1.34509C0.409593 2.28049 0.120468 3.41582 0.0562186 4.69753C-0.0187395 6.01852 -0.0187395 9.97791 0.0562186 11.2989C0.116899 12.5806 0.409593 13.7159 1.34835 14.6513C2.28712 15.5867 3.41863 15.8795 4.70006 15.9438C6.02075 16.0187 9.97925 16.0187 11.2999 15.9438C12.5814 15.8831 13.7165 15.5903 14.6516 14.6513C15.5868 13.7159 15.8795 12.5806 15.9438 11.2989C16.0187 9.97791 16.0187 6.02209 15.9438 4.7011ZM12.2708 4.68682C12.7991 4.68682 13.2274 4.26197 13.2274 3.73C13.2274 3.20161 12.7991 2.77318 12.2708 2.77318C11.7426 2.77318 11.3142 3.20161 11.3142 3.73C11.3142 4.2584 11.739 4.68682 12.2708 4.68682ZM8.00178 3.8978C5.73162 3.8978 3.9005 5.72933 3.9005 8C3.9005 10.2707 5.73162 12.1022 8.00178 12.1022C10.2719 12.1022 12.1031 10.2707 12.1031 8C12.1031 5.72933 10.2719 3.8978 8.00178 3.8978ZM8.00178 10.667C6.53475 10.667 5.33542 9.47094 5.33542 8C5.33542 6.52906 6.53118 5.33304 8.00178 5.33304C9.47239 5.33304 10.6682 6.52906 10.6682 8C10.6682 9.47094 9.46882 10.667 8.00178 10.667ZM12.717 14.2372C13.4202 13.9551 13.9592 13.416 14.2376 12.7163C14.5958 11.816 14.5759 9.84665 14.5629 8.57005C14.5608 8.35829 14.5588 8.1656 14.5588 8C14.5588 7.83437 14.5608 7.64171 14.5629 7.43001C14.5759 6.1541 14.5958 4.18706 14.2376 3.28372C13.9556 2.58039 13.4166 2.04128 12.717 1.7628C11.8141 1.40646 9.83564 1.42545 8.5597 1.43769C8.35271 1.43967 8.16421 1.44148 8.00179 1.44148C7.8362 1.44148 7.64357 1.43953 7.43193 1.43738C6.1563 1.42446 4.1897 1.40453 3.28656 1.7628C2.58338 2.04485 2.04439 2.58396 1.76598 3.28372C1.40972 4.18686 1.4287 6.16574 1.44094 7.44196C1.44292 7.64899 1.44473 7.83754 1.44473 8C1.44473 8.16563 1.44278 8.35829 1.44063 8.56998C1.42771 9.84589 1.40778 11.8129 1.76598 12.7163C2.04796 13.4196 2.58695 13.9587 3.28656 14.2372C4.18949 14.5935 6.16793 14.5746 7.44387 14.5623C7.65086 14.5603 7.83936 14.5585 8.00179 14.5585C8.16737 14.5585 8.35999 14.5605 8.57164 14.5626C9.84726 14.5755 11.8139 14.5955 12.717 14.2372Z" fill="black"/>
</svg>

<svg width="16" height="16" fill="none" xmlns="http://www.w3.org/2000/svg"><path fill-rule="evenodd" clip-rule="evenodd" d="M15.944 4.701c-.06-1.282-.354-2.417-1.292-3.352C13.717.413 12.582.12 11.3.056c-1.32-.075-5.28-.075-6.6 0-1.278.06-2.413.354-3.352 1.29C.41 2.28.12 3.415.056 4.697c-.075 1.32-.075 5.28 0 6.6.06 1.283.354 2.418 1.292 3.353.94.936 2.07 1.229 3.352 1.293 1.32.075 5.28.075 6.6 0 1.281-.06 2.416-.354 3.352-1.293.935-.935 1.228-2.07 1.292-3.352.075-1.321.075-5.277 0-6.598zm-3.673-.014a.957.957 0 100-1.914.957.957 0 000 1.914zM8 3.897A4.095 4.095 0 003.902 8 4.095 4.095 0 008 12.102 4.095 4.095 0 0012.104 8a4.095 4.095 0 00-4.101-4.102zm0 6.77A2.672 2.672 0 015.336 8a2.67 2.67 0 012.667-2.667A2.67 2.67 0 0110.668 8c0 1.47-1.2 2.667-2.666 2.667zm4.716 3.57a2.7 2.7 0 001.52-1.52c.359-.901.339-2.87.326-4.147-.002-.212-.004-.404-.004-.57 0-.166.002-.358.004-.57.013-1.276.033-3.243-.325-4.146a2.7 2.7 0 00-1.521-1.521c-.903-.357-2.881-.338-4.157-.325l-.558.003c-.166 0-.358-.001-.57-.004-1.276-.013-3.242-.032-4.145.326a2.7 2.7 0 00-1.521 1.52c-.356.904-.337 2.883-.325 4.159.002.207.004.396.004.558 0 .166-.002.358-.004.57-.013 1.276-.033 3.243.325 4.146a2.7 2.7 0 001.52 1.521c.903.357 2.882.338 4.158.325l.558-.003c.165 0 .358.002.57.004 1.275.012 3.242.032 4.145-.326z" fill="#000"/></svg>
